X: 44
T: the Monk's March (Sherbourne)
O: Sherbourne, England
R: march
Z: 2014 John Chambers <jc:trillian.mit.edu>
S: handwritten MS by John Chambers (1970s)
M: 2/4
L: 1/8
K: G
D2 |:\
"G"G2 GB | "D7"A2 Ac | "G"Bd ge | "D7"d3 c |\
"G"Bd BG | "D7"AcAF | "G"G2 "C"G2 | "G"HG4 :|
"G"de dc | B2 B2 | "D7"cd cB | A2 A2 |\
"G"de dc | B2 B2 | "D7"cd ec | A2-"da Capo"A2 |]


